webroot/img/new-desgin/why_besa/icon-6.svg

<svg width="104" height="105" viewBox="0 0 104 105" fill="none" xmlns="http://www.w3.org/2000/svg">
<g id="Frame">
<g id="Group">
<path id="Vector" d="M28.2896 77.2959C17.8002 76.9644 17.7986 61.7496 28.2896 61.4197C29.7643 61.4378 31.2052 61.8639 32.4525 62.6508C33.6999 63.4376 34.705 64.5545 35.3566 65.8776C36.0081 67.2006 36.2806 68.6783 36.1438 70.1467C36.007 71.6152 35.4663 73.0171 34.5816 74.1971C34.3315 74.5393 34.225 74.9657 34.2849 75.3853C34.3448 75.805 34.5662 76.1846 34.902 76.4433C35.2379 76.7019 35.6615 76.8191 36.0825 76.7698C36.5035 76.7206 36.8886 76.5088 37.1556 76.1796C38.5203 74.4135 39.326 72.2798 39.4693 70.0525C39.6126 67.8252 39.0869 65.6059 37.9598 63.6795C36.8327 61.7531 35.1555 60.2076 33.1437 59.2413C31.1318 58.2749 28.877 57.9319 26.6688 58.2563C24.4606 58.5807 22.3998 59.5577 20.7508 61.0618C19.1019 62.5659 17.9401 64.5285 17.4146 66.6977C16.8891 68.8669 17.024 71.1436 17.8018 73.2356C18.5796 75.3276 19.9649 77.1393 21.7799 78.4383C19.057 79.4115 16.5882 80.9851 14.5566 83.0426C12.525 85.1001 10.9827 87.5886 10.0441 90.3236C9.75768 91.2291 9.68844 92.1894 9.84199 93.1267C9.99553 94.064 10.3676 94.952 10.9279 95.7189C11.4883 96.4858 12.2214 97.11 13.0677 97.541C13.9141 97.972 14.8501 98.1977 15.7999 98.1999H40.7794C41.7491 98.198 42.7044 97.9651 43.5663 97.5207C44.4282 97.0761 45.1718 96.4328 45.7356 95.6438C46.2872 94.8868 46.6478 94.0078 46.7867 93.0815C46.9256 92.1552 46.8387 91.2091 46.5335 90.3236C45.23 86.5216 42.7709 83.222 39.5002 80.8862C36.2294 78.5504 32.3088 77.2952 28.2896 77.2959ZM43.0934 93.7539C42.8303 94.1226 42.4832 94.4234 42.0808 94.6314C41.6784 94.8394 41.2323 94.9485 40.7794 94.9499H15.7999C15.3469 94.9485 14.9008 94.8394 14.4984 94.6314C14.096 94.4234 13.749 94.1226 13.4859 93.7539C13.238 93.4164 13.0753 93.024 13.0116 92.6101C12.9479 92.1962 12.9852 91.773 13.1202 91.3766C14.2055 88.2161 16.2507 85.4735 18.9703 83.5319C21.6899 81.5903 24.948 80.5466 28.2896 80.5466C31.6312 80.5466 34.8893 81.5903 37.6089 83.5319C40.3285 85.4735 42.3738 88.2161 43.459 91.3766C43.594 91.773 43.6313 92.1962 43.5676 92.6101C43.504 93.024 43.3413 93.4164 43.0934 93.7539ZM93.9542 90.3236C93.0156 87.5886 91.4733 85.1001 89.4417 83.0426C87.4101 80.9851 84.9413 79.4115 82.2185 78.4383C90.9577 72.2877 86.541 58.1421 75.7087 58.1697C72.7427 58.1731 69.8991 59.353 67.8019 61.4505C65.7047 63.548 64.5252 66.3917 64.5222 69.3578C64.4247 71.4427 66.105 78.2807 69.121 76.4753C69.4622 76.2123 69.685 75.8246 69.7405 75.3974C69.7959 74.9702 69.6795 74.5384 69.4167 74.1971C68.3237 72.7766 67.7436 71.028 67.7708 69.2359C67.7979 67.4438 68.4307 65.7136 69.5663 64.3269C70.7018 62.9402 72.2732 61.9786 74.0248 61.5986C75.7763 61.2185 77.6049 61.4424 79.2131 62.2338C80.8212 63.0252 82.1142 64.3375 82.8816 65.9572C83.649 67.577 83.8458 69.4087 83.4397 71.1544C83.0337 72.9001 82.0489 74.4571 80.6455 75.5719C79.2421 76.6867 77.5027 77.2938 75.7104 77.2943C71.6904 77.293 67.7706 78.5482 64.4991 80.8843C61.2277 83.2205 58.7682 86.5208 57.4649 90.3236C57.1784 91.2291 57.1092 92.1894 57.2627 93.1267C57.4163 94.064 57.7883 94.952 58.3487 95.7189C58.9091 96.4858 59.6421 97.11 60.4885 97.541C61.3349 97.972 62.2708 98.1977 63.2206 98.1999H88.2001C89.1498 98.1975 90.0855 97.9716 90.9317 97.5404C91.7778 97.1093 92.5107 96.4851 93.0709 95.7183C93.6311 94.9514 94.003 94.0635 94.1564 93.1263C94.3099 92.1892 94.2406 91.229 93.9542 90.3236ZM90.5125 93.7539C90.2495 94.1224 89.9027 94.423 89.5006 94.631C89.0986 94.839 88.6528 94.9483 88.2001 94.9499H63.219C62.7663 94.9483 62.3205 94.839 61.9185 94.631C61.5164 94.423 61.1695 94.1224 60.9066 93.7539C60.6587 93.4164 60.496 93.024 60.4323 92.6101C60.3687 92.1962 60.406 91.773 60.541 91.3766C61.6262 88.2161 63.6714 85.4735 66.391 83.5319C69.1106 81.5903 72.3688 80.5466 75.7104 80.5466C79.0519 80.5466 82.3101 81.5903 85.0297 83.5319C87.7493 85.4735 89.7945 88.2161 90.8797 91.3766C91.0145 91.7731 91.0515 92.1964 90.9876 92.6103C90.9236 93.0242 90.7607 93.4165 90.5125 93.7539ZM69.0137 44.6594C69.2539 44.8457 69.5413 44.9614 69.8435 44.9936C70.1458 45.0257 70.451 44.973 70.725 44.8414C70.999 44.7098 71.2309 44.5045 71.3948 44.2485C71.5587 43.9925 71.648 43.6959 71.6527 43.3919V36.2322H75.8842C77.0912 36.2309 78.2483 35.751 79.1019 34.8977C79.9554 34.0445 80.4358 32.8875 80.4375 31.6806V11.1844C80.4358 9.97752 79.9554 8.82055 79.1019 7.96728C78.2483 7.11401 77.0912 6.6341 75.8842 6.63281H46.605C45.3981 6.6341 44.2409 7.11401 43.3873 7.96728C42.5338 8.82055 42.0535 9.97752 42.0517 11.1844V21.4252H27.6542C26.5684 21.426 25.5274 21.8578 24.7596 22.6255C23.9918 23.3933 23.5601 24.4344 23.5592 25.5202V42.7712C23.5601 43.857 23.9918 44.8981 24.7596 45.6658C25.5274 46.4336 26.5684 46.8653 27.6542 46.8662H30.9562V52.6366C30.9608 52.9408 31.05 53.2377 31.2139 53.494C31.3779 53.7503 31.61 53.9558 31.8843 54.0875C32.1586 54.2191 32.4642 54.2717 32.7667 54.2393C33.0692 54.2069 33.3567 54.0908 33.5969 53.9041L42.3979 46.8646H52.3039C53.3891 46.8633 54.4295 46.4316 55.1969 45.6642C55.9643 44.8968 56.3959 43.8564 56.3972 42.7712V36.2322H58.4772L69.0137 44.6594ZM53.1489 42.7712C53.1502 42.8825 53.1292 42.993 53.0872 43.0961C53.0452 43.1992 52.983 43.2929 52.9043 43.3716C52.8255 43.4503 52.7319 43.5125 52.6288 43.5545C52.5257 43.5965 52.4152 43.6175 52.3039 43.6162H41.8291C41.4599 43.6158 41.1016 43.7413 40.8135 43.9721L34.2079 49.2566V45.2396C34.2079 44.8086 34.0366 44.3953 33.7319 44.0905C33.4272 43.7858 33.0138 43.6146 32.5829 43.6146H27.6575C27.5463 43.6159 27.436 43.595 27.333 43.5531C27.23 43.5111 27.1364 43.4491 27.0576 43.3705C26.9789 43.292 26.9167 43.1985 26.8746 43.0956C26.8325 42.9927 26.8114 42.8824 26.8125 42.7712V25.5186C26.8114 25.4074 26.8325 25.2971 26.8746 25.1942C26.9167 25.0912 26.9789 24.9978 27.0576 24.9192C27.1364 24.8406 27.23 24.7786 27.333 24.7367C27.436 24.6948 27.5463 24.6739 27.6575 24.6752H42.055V31.6789C42.0563 32.8861 42.5364 34.0435 43.39 34.8971C44.2436 35.7508 45.401 36.2309 46.6082 36.2322H53.1505L53.1489 42.7712ZM46.605 32.9822C46.2596 32.9822 45.9284 32.8451 45.684 32.6011C45.4397 32.357 45.3022 32.0259 45.3017 31.6806V11.1844C45.3026 10.8392 45.4402 10.5084 45.6845 10.2644C45.9288 10.0205 46.2598 9.88324 46.605 9.88281H75.8826C76.2278 9.88324 76.5588 10.0205 76.8031 10.2644C77.0474 10.5084 77.185 10.8392 77.1859 11.1844V31.6822C77.185 32.0273 77.0473 32.3579 76.803 32.6016C76.5587 32.8453 76.2277 32.9822 75.8826 32.9822H70.0261C69.5951 32.9822 69.1818 33.1534 68.8771 33.4581C68.5723 33.7629 68.4011 34.1762 68.4011 34.6072V40.0119L60.0632 33.3397C59.7753 33.1083 59.417 32.9822 59.0476 32.9822H46.605Z" fill="url(#paint0_linear_31_291)"/>
</g>
</g>
<defs>
<linearGradient id="paint0_linear_31_291" x1="17.6744" y1="14.9971" x2="101.342" y2="111.997" gradientUnits="userSpaceOnUse">
<stop stop-color="#007BC4"/>
<stop offset="1" stop-color="#0B4C97"/>
</linearGradient>
</defs>
</svg>

<svg width="104" height="105" fill="none" xmlns="http://www.w3.org/2000/svg"><path d="M28.29 77.296c-10.49-.332-10.491-15.546 0-15.876a7.986 7.986 0 0 1 6.292 12.777 1.625 1.625 0 0 0 2.574 1.983 11.196 11.196 0 1 0-15.376 2.258 19.261 19.261 0 0 0-11.736 11.886A6.051 6.051 0 0 0 15.8 98.2h24.98a6.107 6.107 0 0 0 4.956-2.556 5.815 5.815 0 0 0 .797-5.32A19.281 19.281 0 0 0 28.29 77.296Zm14.803 16.458a2.854 2.854 0 0 1-2.314 1.196H15.8a2.853 2.853 0 0 1-2.313-1.196 2.6 2.6 0 0 1-.366-2.377 16.04 16.04 0 0 1 30.339 0 2.6 2.6 0 0 1-.366 2.377Zm50.861-3.43A19.261 19.261 0 0 0 82.22 78.438c8.739-6.15 4.322-20.296-6.51-20.268a11.2 11.2 0 0 0-11.187 11.188c-.097 2.085 1.583 8.923 4.599 7.117a1.625 1.625 0 0 0 .296-2.278 7.938 7.938 0 1 1 6.293 3.097 19.282 19.282 0 0 0-18.245 13.03A6.05 6.05 0 0 0 63.22 98.2H88.2a6.05 6.05 0 0 0 5.753-7.876Zm-3.441 3.43A2.854 2.854 0 0 1 88.2 94.95H63.22a2.852 2.852 0 0 1-2.312-1.196 2.6 2.6 0 0 1-.366-2.377 16.038 16.038 0 0 1 30.339 0 2.6 2.6 0 0 1-.367 2.377Zm-21.5-49.095a1.637 1.637 0 0 0 2.64-1.267v-7.16h4.231a4.558 4.558 0 0 0 4.553-4.551V11.184a4.558 4.558 0 0 0-4.553-4.551H46.605a4.558 4.558 0 0 0-4.553 4.551v10.241H27.654a4.098 4.098 0 0 0-4.095 4.095v17.251a4.098 4.098 0 0 0 4.095 4.095h3.302v5.77a1.637 1.637 0 0 0 2.64 1.268l8.802-7.04h9.906a4.098 4.098 0 0 0 4.093-4.093v-6.539h2.08l10.537 8.427ZM53.15 42.771a.835.835 0 0 1-.845.845H41.829c-.37 0-.727.125-1.016.356l-6.605 5.285V45.24a1.625 1.625 0 0 0-1.625-1.625h-4.925a.835.835 0 0 1-.846-.844V25.52a.835.835 0 0 1 .845-.844h14.398v7.004a4.558 4.558 0 0 0 4.553 4.553h6.543l-.002 6.54Zm-6.544-9.789a1.304 1.304 0 0 1-1.303-1.301V11.184a1.305 1.305 0 0 1 1.303-1.301h29.278a1.305 1.305 0 0 1 1.303 1.301v20.498a1.303 1.303 0 0 1-1.303 1.3h-5.857a1.625 1.625 0 0 0-1.625 1.625v5.405l-8.338-6.672a1.621 1.621 0 0 0-1.015-.358H46.605Z" fill="url(#a)"/><defs><linearGradient id="a" x1="17.674" y1="14.997" x2="101.342" y2="111.997" gradientUnits="userSpaceOnUse"><stop stop-color="#007BC4"/><stop offset="1" stop-color="#0B4C97"/></linearGradient></defs></svg>
